X:1
T:Title
%%score { ( 1 4 ) | ( 2 3 ) }
L:1/8
M:2/4
K:G
V:1 treble nm="Grand Piano"
V:4 treble 
V:2 bass 
V:3 bass 
V:1
 z4 |[Q:1/4=100] E>F G>G | [EG]>G A>G | F>E [EG]2 | [B,^DF]4 | [^DF]>[EG] [FA]>[FA] | %6
 [FA]>[FA] [GB]>[FA] | [EG]>[FA] [GB]2 | [GB]4 | [CA]>[DB] [EAc]>[EAc] | [EAc]>[EAc] [EAd]>[EAc] | %11
 [DB]>A [CA]2 | [A,^DF]4 | B2 z2 | [G,B,E]4 | E>G [GB]2 | [GB]4 | E>G [GB]2 | [GB]4 | E>G B>B | %20
 [GB]>[GB] [GB]>[GB] | [Ec]>[DB] [CB]2 | [CEA]4 | ^D>F [FA]2 | [FA]4 | [GB]>c [GB]2 | [FA]4 | %27
 [^DFB]>[Fc] [DFB]>[FB] | [^DFB]>A G>F | A>G F2 | E4[K:bass] |] %31
V:2
 z4 | [E,,E,]2 .[E,G,B,E]>E | z z/ E/ .[E,G,B,]2 | [E,,E,]2 .[E,G,B,]2 | [B,,,B,,]2 [B,,^D,]2 | %5
 [B,,,B,,]2 [B,,^D,F,B,]2 | [B,,,B,,]2 [B,,^D,F,B,]2 | [B,,,B,,]2 [E,,E,]2 | [E,,E,]2 [E,G,]2 | %9
 [A,,A,]2 [E,A,C]2 | [A,,A,]2 [E,A,C]2 | z z/ C/ E,2 | B,,2 F,2 | z z/ A/ E,2 | E,2 E,,2 | %15
 [E,,E,]2 [E,G,B,]2 | [E,,E,]2 [E,G,]2 | [E,,E,]2 [E,G,B,]2 | [E,,E,]2 [E,G,]2 | %19
 [E,,E,]2 [E,G,B,]2 | [E,,E,]2 [E,G,B,]2 | [E,,E,]2 [E,,E,]2 | [A,,A,]2 E,2 | B,,2 [^D,F,B,]2 | %24
 B,,2 ^D,2 | z z/ A/ [^D,F,B,]2 | B,,2 ^D,2 | z z/ ^D/ z z/ D/ | B,,2 [^D,F,B,]2 | %29
 [B,,,B,,]2 [^D,,^D,]2 | [G,B,]4 |] %31
V:3
 x4 | x4 | [E,,E,]2 z2 | x4 | x4 | x4 | x4 | x4 | x4 | x4 | x4 | [A,,A,]2 z2 | x4 | B,,2 z2 | x4 | %15
 x4 | x4 | x4 | x4 | x4 | x4 | x4 | x4 | x4 | x4 | B,,2 z2 | x4 | B,,2 [^D,F,B,]2 | x4 | x4 | %30
 E,2 z2 |] %31
V:4
 x4 | x4 | x4 | x4 | z2 A,2 | x4 | x4 | x4 | z2 B,2 | x4 | x4 | x4 | x4 | ^D2- [DG]2 | x4 | x4 | %16
 z2 B,2 | x4 | z2 B,2 | x4 | x4 | x4 | x4 | x4 | z2 [F,B,]2 | x4 | z2 [F,B,]2 | x4 | x4 | x4 | %30
 z2[K:bass] E,,2 |] %31

